X:1
T:Cross and Crown (Elliott), 87.87 D
T:Cross and Crown (Elliott), 87.87 D
T:James William Elliott, 1874
T:Public Domain Courtesy of the Cyber Hymnal™
C:James William Elliott, 1874
Z:Public Domain
Z:Courtesy of the Cyber Hymnal™
%%score ( 1 2 ) ( 3 4 )
L:1/8
Q:1/4=110
M:4/4
K:Ab
V:1 treble 
V:2 treble 
V:3 bass 
V:4 bass 
V:1
 C2 [CF]2 | [FA]3 [CF] [C=E]2 [CG]2 | [CG]2 [CF]2 [FA]2 [Fc]2 | [Fc]2 [FB]2 [FA]2 [FB]2 | %4
 [=Ec]4 [CG]2 [Ec]2 | [D=EB]2 [CFA]2 B2 [G_e]2 | [_FGd]2 [EAc]2 [FB]2 B2 | [=EB]2 [FA]2 [DG]2 F2 | %8
 [=Ec]4 ||[K:F]"^Faster" [Cc]2 [Cc]2 | [Af]2 [FA]2 [FB]2 [Fd]2 | [Fd]2 [Fc]2 [FA]2 [Fc]2 | %12
 [Af]2 [Fd]2 [DA]2 [F=B]2 | [Ec]4 [Ec]2 [Ec]2 | [_Ec]2 [EA]2 [EG]2 [EF]2 | %15
 [DF]2 [DB]2 [Fd]2 [Bf]2 | [Af]2 F2 [FA]2 [EG]2 | F4 |] %18
V:2
 C2 x2 | x8 | x8 | x8 | x8 | x4 B2 x2 | x6 (G_F) | x6 F2 | x4 ||[K:F] x4 | x8 | x8 | x8 | x8 | x8 | %15
 x8 | x2 F2 x4 | F4 |] %18
V:3
 [F,A,]2 [F,A,]2 | [F,C]3 [A,,A,] [C,G,]2 [C,B,]2 | [C,B,]2 [F,A,]2 [F,C]2 [E,A,]2 | %3
 [D,A,]2 [D,G,]2 [D,F,]2 [D,F,]2 | [C,G,]4 [=E,G,]2 [C,G,]2 | [F,G,]2 [F,A,]2 [G,E]2 [E,B,]2 | %6
 [A,B,]2 [A,C]2 [B,,D]2 [B,,D]2 | [C,C]2 [F,C]2 [B,,B,]2 [D,B,]2 | [C,G,]4 ||[K:F] C2 C2 | %10
 [F,C]2 [F,C]2 [F,D]2 [F,B,]2 | [F,B,]2 [F,A,]2 [F,A,]2 [E,A,]2 | [D,D]2 [D,A,]2 [F,A,]2 [D,A,]2 | %13
 [A,,A,]4 [G,B,]2 [G,B,]2 | [F,A,]2 [F,A,]2 [G,B,]2 [A,C]2 | [B,D]2 B,2 [A,B,]2 [G,D]2 | %16
 C2 [C,A,]2 [C,C]2 [C,B,]2 | [F,A,]4 |] %18
V:4
 x4 | x8 | x8 | x8 | x8 | x8 | x8 | x8 | x4 ||[K:F] C2 C2 | x8 | x8 | x8 | x8 | x8 | x2 B,2 x4 | %16
 C2 x6 | x4 |] %18

